X:21
T:Master Tommy's Married
F:http://www.vwml.org/record/Moore1/4493/p13
Z:Transcribed by Paul Barber-Riley  March 2016
S:John Moore's Book 1
L:1/4
M:6/4
K:C
gddcBd | gddcB2 | G3/2BAcBd | cAFAG2 :|                       %Bar 3 incorrect length
G3/2B/AcBd | G3/2 BAcB2 | gddcBd | cAFAG2 :|               %Bar 2 incorrect length

